dist/img/iconFile_fff.svg

<svg width="20" height="20" viewBox="0 0 20 20" fill="none" xmlns="http://www.w3.org/2000/svg">
<g clip-path="url(#clip0_119_1985)">
<path d="M18.5 13.4531V2.29688C18.5 1.85527 18.094 1.5 17.5893 1.5H5.14286C3.1317 1.5 1.5 2.92773 1.5 4.6875V15.3125C1.5 17.0723 3.1317 18.5 5.14286 18.5H17.5893C18.094 18.5 18.5 18.1447 18.5 17.7031V17.1719C18.5 16.9229 18.3672 16.6971 18.1623 16.551C18.0029 16.0396 18.0029 14.582 18.1623 14.0707C18.3672 13.9279 18.5 13.7021 18.5 13.4531ZM6.35714 5.94922C6.35714 5.83965 6.4596 5.75 6.58482 5.75H14.6295C14.7547 5.75 14.8571 5.83965 14.8571 5.94922V6.61328C14.8571 6.72285 14.7547 6.8125 14.6295 6.8125H6.58482C6.4596 6.8125 6.35714 6.72285 6.35714 6.61328V5.94922ZM6.35714 8.07422C6.35714 7.96465 6.4596 7.875 6.58482 7.875H14.6295C14.7547 7.875 14.8571 7.96465 14.8571 8.07422V8.73828C14.8571 8.84785 14.7547 8.9375 14.6295 8.9375H6.58482C6.4596 8.9375 6.35714 8.84785 6.35714 8.73828V8.07422ZM15.9728 16.375H5.14286C4.47121 16.375 3.92857 15.9002 3.92857 15.3125C3.92857 14.7281 4.475 14.25 5.14286 14.25H15.9728C15.9007 14.8178 15.9007 15.8072 15.9728 16.375Z" fill="#FFFDF9"/>
</g>
<defs>
<clipPath id="clip0_119_1985">
<rect width="17" height="17" fill="white" transform="translate(1.5 1.5)"/>
</clipPath>
</defs>
</svg>

<svg width="20" height="20" viewBox="0 0 20 20" fill="none" xmlns="http://www.w3.org/2000/svg"><g clip-path="url(#clip0_119_1985)"><path d="M18.5 13.453V2.297c0-.442-.406-.797-.91-.797H5.142C3.132 1.5 1.5 2.928 1.5 4.688v10.625c0 1.76 1.632 3.187 3.643 3.187h12.446c.505 0 .911-.355.911-.797v-.531a.77.77 0 00-.338-.621c-.16-.511-.16-1.969 0-2.48a.759.759 0 00.338-.618zM6.357 5.95c0-.11.103-.199.228-.199h8.044c.126 0 .228.09.228.2v.663c0 .11-.102.2-.227.2H6.585c-.125 0-.228-.09-.228-.2V5.95zm0 2.125c0-.11.103-.199.228-.199h8.044c.126 0 .228.09.228.2v.663c0 .11-.102.2-.227.2H6.585c-.125 0-.228-.09-.228-.2v-.664zm9.616 8.301H5.143c-.672 0-1.214-.475-1.214-1.063 0-.584.546-1.062 1.214-1.062h10.83a10.465 10.465 0 000 2.125z" fill="#FFFDF9"/></g><defs><clipPath id="clip0_119_1985"><path fill="#fff" transform="translate(1.5 1.5)" d="M0 0h17v17H0z"/></clipPath></defs></svg>
